X:1
T:Title
%%score { ( 1 3 ) | 2 }
L:1/8
Q:1/4=112
M:4/4
K:G
V:1 treble nm="Grand Piano"
V:3 treble 
V:2 bass 
V:1
 [B,G]2 [CF]2 [DG]2 [B,D]2 | E2 F2 [B,G]2 [B,D]2 | B2 B2 c2 B2 | A2 [^CG]2 [=CA]4 | %4
w: W.~J.~Kirkpatrick * * *||||
 [B,G]2 [CF]2 [DG]2 [B,D]2 | E2 F2 [B,G]2 [B,D]2 | B2 B2 [Ec]2 [Ec]2 | z2 A2 z4 | d2 ^c2 d2 B2 | %9
w: |||||
 [DGB]2 [^CG_B]2 [DG=B]2 [B,DG]2 | [CFA]2 [B,=F^G]2 [C^FA]2 [=FB]2 | [Fc]2 [Fd]2 B4 | %12
w: |||
 d2 ^c2 d2 B2 | [DGB]2 [^CG_B]2 [DG=B]2 [B,DG]2 | [G,CE]2 [G,CG]2 [B,D]2 [EGc]2 | %15
w: |||
 [DGB]2 [CFA]2 [B,DG]4 |] %16
w: |
V:2
 [G,,D,]2 [A,,D,]2 [B,,D,]2 [G,,G,]2 | [C,G,C]2 [D,C]2 [G,,D,]2 [G,,G,]2 | %2
 [G,D]2 [G,D]2 [F,A,D]2 [G,D]2 | [E,G,^C]2 [A,,G,]2 [D,F,]4 | [G,,D,]2 [A,,D,]2 [B,,D,]2 [G,,G,]2 | %5
 [C,G,C]2 [D,C]2 [G,,D,]2 [G,,G,]2 | [G,D]2 [G,D]2 [C,G,]2 [C,G,]2 | [D,G,D]2 .[D,F,D]2 G,,4 | %8
 [G,B,G]2 [G,_B,G]2 [G,=B,G]2[K:bass] [G,D]2 | G,,2 G,,2 G,,2 G,,2 | D,2 D,2 D,2 [D,^G,]2 | %11
 [D,A,]2 [D,A,]2[K:treble] [G,D]4 | [G,B,G]2 [G,_B,G]2 [G,=B,G]2 [G,D]2 | G,,2 G,,2 G,,2 G,,2 | %14
 C,2 E,2 G,2 C,2 | D,2 D,2 G,,4 |] %16
V:3
 x8 | x8 | x8 | x8 | x8 | x8 | x8 | B2 z C [B,DG]4 | x8 | x8 | x8 | x8 | x8 | x8 | x8 | x8 |] %16

